svgs/sharp-regular/coffin-cross.svg

<svg xmlns="http://www.w3.org/2000/svg" viewBox="0 0 384 512"><!--! Font Awesome Pro 6.6.0 by @fontawesome - https://fontawesome.com License - https://fontawesome.com/license (Commercial License) Copyright 2024 Fonticons, Inc. --><path d="M52.8 154.3L135.5 48l113 0 82.7 106.3L243.7 464l-103.4 0L52.8 154.3zM104 512l176 0L384 144 272 0 112 0 0 144 104 512zM216 120l0-24-48 0 0 24 0 40-48 0-24 0 0 48 24 0 48 0 0 120 0 24 48 0 0-24 0-120 48 0 24 0 0-48-24 0-48 0 0-40z"/></svg>

<svg xmlns="http://www.w3.org/2000/svg" viewBox="0 0 384 512"><!--! Font Awesome Pro 6.4.0 by @fontawesome - https://fontawesome.com License - https://fontawesome.com/license (Commercial License) Copyright 2023 Fonticons, Inc. --><path d="M52.8 154.3L135.5 48h113l82.7 106.3L243.7 464H140.3L52.8 154.3zM104 512H280L384 144 272 0H112L0 144 104 512zM216 120V96H168v24 40H120 96v48h24 48V328v24h48V328 208h48 24V160H264 216V120z"/></svg>
